icons/circle/48/printer.svg

<svg xmlns="http://www.w3.org/2000/svg" xmlns:xlink="http://www.w3.org/1999/xlink" viewBox="0 0 48 48">
 <defs>
  <linearGradient id="linearGradient3764" x1="1" x2="47" gradientUnits="userSpaceOnUse" gradientTransform="matrix(0,-1,1,0,-1.5e-6,47.999998)">
   <stop style="stop-color:#51c8d3;stop-opacity:1"/>
   <stop offset="1" style="stop-color:#61ced7;stop-opacity:1"/>
  </linearGradient>
 </defs>
 <g>
  <path d="m 36.31 5 c 5.859 4.062 9.688 10.831 9.688 18.5 c 0 12.426 -10.07 22.5 -22.5 22.5 c -7.669 0 -14.438 -3.828 -18.5 -9.688 c 1.037 1.822 2.306 3.499 3.781 4.969 c 4.085 3.712 9.514 5.969 15.469 5.969 c 12.703 0 23 -10.298 23 -23 c 0 -5.954 -2.256 -11.384 -5.969 -15.469 c -1.469 -1.475 -3.147 -2.744 -4.969 -3.781 z m 4.969 3.781 c 3.854 4.113 6.219 9.637 6.219 15.719 c 0 12.703 -10.297 23 -23 23 c -6.081 0 -11.606 -2.364 -15.719 -6.219 c 4.16 4.144 9.883 6.719 16.219 6.719 c 12.703 0 23 -10.298 23 -23 c 0 -6.335 -2.575 -12.06 -6.719 -16.219 z" style="opacity:0.05"/>
  <path d="m 41.28 8.781 c 3.712 4.085 5.969 9.514 5.969 15.469 c 0 12.703 -10.297 23 -23 23 c -5.954 0 -11.384 -2.256 -15.469 -5.969 c 4.113 3.854 9.637 6.219 15.719 6.219 c 12.703 0 23 -10.298 23 -23 c 0 -6.081 -2.364 -11.606 -6.219 -15.719 z" style="opacity:0.1"/>
  <path d="m 31.25 2.375 c 8.615 3.154 14.75 11.417 14.75 21.13 c 0 12.426 -10.07 22.5 -22.5 22.5 c -9.708 0 -17.971 -6.135 -21.12 -14.75 a 23 23 0 0 0 44.875 -7 a 23 23 0 0 0 -16 -21.875 z" style="opacity:0.2"/>
 </g>
 <g>
  <path d="m 24 1 c 12.703 0 23 10.297 23 23 c 0 12.703 -10.297 23 -23 23 -12.703 0 -23 -10.297 -23 -23 0 -12.703 10.297 -23 23 -23 z" style="fill:url(#linearGradient3764);fill-opacity:1"/>
 </g>
 <g>
  <g>
   <g transform="translate(1,1)">
    <g style="opacity:0.1">
     <!-- color: #61ced7 -->
     <g>
      <path d="m 17.875 12 c -0.492 0 -0.875 0.383 -0.875 0.875 l 0 5.125 l -3.227 0 c -0.98 0 -1.773 0.793 -1.773 1.773 l 0 12.453 c 0 0.98 0.793 1.771 1.773 1.771 l 3.225 0 l 0 3.115 c 0 0.492 0.397 0.887 0.889 0.887 l 14.227 0 c 0.492 0 0.887 -0.395 0.887 -0.887 l 0 -3.115 l 3.227 0 c 0.98 0 1.771 -0.791 1.771 -1.771 l 0 -12.453 c 0 -0.98 -0.791 -1.773 -1.771 -1.773 l -3.227 0 l 0 -3 l -3 -3 l -12.12 0 z" transform="translate(-1,-1)" style="fill:#000;fill-opacity:1;stroke:none;fill-rule:nonzero"/>
      <use xlink:href="#SVGCleanerId_0"/>
     </g>
    </g>
   </g>
  </g>
 </g>
 <g>
  <g>
   <!-- color: #61ced7 -->
   <g>
    <path d="m 12.773,17 22.453,0 c 0.98,0 1.773,0.793 1.773,1.773 l 0,12.453 c 0,0.98 -0.793,1.773 -1.773,1.773 l -22.453,0 C 11.793,32.999 11,32.206 11,31.226 L 11,18.773 C 11,17.793 11.793,17 12.773,17 m 0,0" style="fill:#515462;fill-opacity:1;stroke:none;fill-rule:nonzero"/>
    <path d="m 11,25 0,6.219 C 11,32.199 11.801,33 12.781,33 l 22.438,0 C 36.199,33 37,32.199 37,31.219 L 37,25 m -26,0" style="fill:#212c3c;fill-opacity:1;stroke:none;fill-rule:nonzero"/>
    <path d="m 15 20 18 0 0 2 -18 0 m 0 -2" style="fill:#212c3c;fill-opacity:1;stroke:none;fill-rule:nonzero"/>
    <path d="M 16.875,11 C 16.383,11 16,11.383 16,11.875 l 0,9.125 16,0 0,-7 -3,-3 m -12.12,0" style="fill:#ececde;fill-opacity:1;stroke:none;fill-rule:nonzero"/>
    <path d="m 15 28 18 0 0 2 -18 0 m 0 -2" style="fill:#515462;fill-opacity:1;stroke:none;fill-rule:nonzero"/>
    <path d="m 32,29 0,7.113 C 32,36.605 31.605,37 31.113,37 l -14.227,0 c -0.492,0 -0.887,-0.395 -0.887,-0.887 l 0,-7.113 m 16,0" style="fill:#ececde;fill-opacity:1;stroke:none;fill-rule:nonzero"/>
    <path d="m 29 11 0 3 3 0 m -3 -3" style="fill:#fff;fill-opacity:1;stroke:none;fill-rule:nonzero"/>
    <path d="m 29 14 3 0 0 3 m -3 -3" id="SVGCleanerId_0" style="fill:#000;fill-opacity:0.2;stroke:none;fill-rule:nonzero"/>
    <path d="m 19 13 9 0 0 1 -9 0 m 0 -1" style="fill:#696e78;fill-opacity:0.702;stroke:none;fill-rule:nonzero"/>
    <path d="m 19 15 9 0 0 1 -9 0 m 0 -1" style="fill:#696e78;fill-opacity:0.702;stroke:none;fill-rule:nonzero"/>
    <path d="m 19 17 9 0 0 1 -9 0 m 0 -1" style="fill:#696e78;fill-opacity:0.702;stroke:none;fill-rule:nonzero"/>
    <path d="m 19 19 6 0 0 1 -6 0 m 0 -1" style="fill:#696e78;fill-opacity:0.702;stroke:none;fill-rule:nonzero"/>
   </g>
  </g>
 </g>
 <g>
  <path d="m 40.03 7.531 c 3.712 4.084 5.969 9.514 5.969 15.469 0 12.703 -10.297 23 -23 23 c -5.954 0 -11.384 -2.256 -15.469 -5.969 4.178 4.291 10.01 6.969 16.469 6.969 c 12.703 0 23 -10.298 23 -23 0 -6.462 -2.677 -12.291 -6.969 -16.469 z" style="opacity:0.1"/>
 </g>
</svg>

<svg xmlns="http://www.w3.org/2000/svg" xmlns:xlink="http://www.w3.org/1999/xlink" viewBox="0 0 48 48">
  <defs>
    <linearGradient id="a" x1="1" x2="47" gradientUnits="userSpaceOnUse" gradientTransform="rotate(-90 24 24)">
      <stop stop-color="#51c8d3"/>
      <stop offset="1" stop-color="#61ced7"/>
    </linearGradient>
  </defs>
  <path d="M36.31 5c5.859 4.062 9.688 10.831 9.688 18.5 0 12.426-10.07 22.5-22.5 22.5-7.669 0-14.438-3.828-18.5-9.688a23.24 23.24 0 0 0 3.781 4.969 22.923 22.923 0 0 0 15.469 5.969c12.703 0 23-10.298 23-23a22.92 22.92 0 0 0-5.969-15.469A23.216 23.216 0 0 0 36.31 5zm4.969 3.781A22.911 22.911 0 0 1 47.498 24.5c0 12.703-10.297 23-23 23a22.909 22.909 0 0 1-15.719-6.219C12.939 45.425 18.662 48 24.998 48c12.703 0 23-10.298 23-23 0-6.335-2.575-12.06-6.719-16.219z" opacity=".05"/>
  <path d="M41.28 8.781a22.923 22.923 0 0 1 5.969 15.469c0 12.703-10.297 23-23 23A22.92 22.92 0 0 1 8.78 41.281 22.911 22.911 0 0 0 24.499 47.5c12.703 0 23-10.298 23-23A22.909 22.909 0 0 0 41.28 8.781z" opacity=".1"/>
  <path d="M31.25 2.375C39.865 5.529 46 13.792 46 23.505c0 12.426-10.07 22.5-22.5 22.5-9.708 0-17.971-6.135-21.12-14.75a23 23 0 0 0 44.875-7 23 23 0 0 0-16-21.875z" opacity=".2"/>
  <path d="M24 1c12.703 0 23 10.297 23 23S36.703 47 24 47 1 36.703 1 24 11.297 1 24 1z" fill="url(#a)"/>
  <g transform="translate(1 1)" opacity=".1">
    <path d="M16.875 11a.864.864 0 0 0-.875.875V17h-3.227c-.98 0-1.773.793-1.773 1.773v12.453c0 .98.793 1.771 1.773 1.771h3.225v3.115c0 .492.397.887.889.887h14.227a.884.884 0 0 0 .887-.887v-3.115h3.227c.98 0 1.771-.791 1.771-1.771V18.773A1.77 1.77 0 0 0 35.228 17h-3.227v-3l-3-3h-12.12z"/>
    <use xlink:href="#b"/>
  </g>
  <g>
    <path d="M12.773 17h22.453c.98 0 1.773.793 1.773 1.773v12.453c0 .98-.793 1.773-1.773 1.773H12.773c-.98 0-1.773-.793-1.773-1.773V18.773c0-.98.793-1.773 1.773-1.773m0 0" fill="#515462"/>
    <path d="M11 25v6.219c0 .98.801 1.781 1.781 1.781h22.438c.98 0 1.781-.801 1.781-1.781V25m-26 0M15 20h18v2H15m0-2" fill="#212c3c"/>
    <path d="M16.875 11a.864.864 0 0 0-.875.875V21h16v-7l-3-3m-12.12 0" fill="#ececde"/>
    <path d="M15 28h18v2H15m0-2" fill="#515462"/>
    <path d="M32 29v7.113a.884.884 0 0 1-.887.887H16.886a.884.884 0 0 1-.887-.887V29m16 0" fill="#ececde"/>
    <path d="M29 11v3h3m-3-3" fill="#fff"/>
    <path d="M29 14h3v3m-3-3" id="b" fill-opacity=".2"/>
    <path d="M19 13h9v1h-9m0-1M19 15h9v1h-9m0-1M19 17h9v1h-9m0-1M19 19h6v1h-6m0-1" fill="#696e78" fill-opacity=".702"/>
  </g>
  <g>
    <path d="M40.03 7.531A22.922 22.922 0 0 1 45.999 23c0 12.703-10.297 23-23 23A22.92 22.92 0 0 1 7.53 40.031C11.708 44.322 17.54 47 23.999 47c12.703 0 23-10.298 23-23 0-6.462-2.677-12.291-6.969-16.469z" opacity=".1"/>
  </g>
</svg>
